X: 33815
T: Ready
R: reel
M: 4/4
K: Bminor
|:"Bm"Bccd BA"Em"FA|Bccd BAFA|"D"ABE2 E2"A"ED|ABE2 E2ED-|"Bm"Dccd BA"Em"FA|
Bccd BAFA|1 "D"ABE2 ED"A/C#"D2-|DEEE EDA,D:|2 "A"ABE2 ED"Bm"D2-|DEEE EDA,D||
|:"Bm"cdBA B2"Em"AF|ABde feec|"D"cdBA B2"A"AF|A2AB AFED|"Bm"DdBA B2"Em"AF|
ABde fece|1 "D"(3efg fd ed "A/C#"(3Bde|a2a2- agfe:|2 "A"(3efg fd ed "Bm"(3Bde|a8||

